papirus/22x22/apps/copy-com.svg

<?xml version="1.0" encoding="UTF-8" standalone="no"?>
<svg id="svg2" xmlns:rdf="http://www.w3.org/1999/02/22-rdf-syntax-ns#" xmlns="http://www.w3.org/2000/svg" height="22" width="22" version="1.1" xmlns:cc="http://creativecommons.org/ns#" viewBox="0 0 44 44" xmlns:dc="http://purl.org/dc/elements/1.1/">
 <metadata id="metadata8">
  <rdf:RDF>
   <cc:Work rdf:about="">
    <dc:format>image/svg+xml</dc:format>
    <dc:type rdf:resource="http://purl.org/dc/dcmitype/StillImage"/>
    <dc:title/>
   </cc:Work>
  </rdf:RDF>
 </metadata>
 <g id="g4140">
  <g id="g4138" transform="matrix(.11437 0 0 .11437 1.5487 6.3965)">
   <path id="path4142" fill="#1ba9cb" d="m135.1 276.33-52.466-166.13-78.694 17.48 65.578-52.458l30.603 8.7438 56.834 131.16 104.93-65.578 30.603 4.3719 61.206 122.41-183.62-17.488zm100.55-148.65 83.07-131.15-43.72 148.64z"/>
   <path id="path4140" fill="#e65902" d="m161.33 197.63-21.859-43.719 48.091-26.231h26.231l34.975 17.488z"/>
  </g>
  <g id="g4144" fill="#8b8b8b" transform="matrix(.11437 0 0 .11437 1.5488 6.3966)">
   <path id="path4146" opacity=".1" d="m40 8-9.5 15 0.494 0.219 8.457-13.352 0.549-1.867zm-28.5 9-7.5 6 1.7305-0.385 5.7695-4.615 3.5 1 6.5 15 12-7.5 3.5 0.5 6.475 12.949 0.525 0.051-7-14-1.92-0.273-0.08 0.273-0.947-0.422-0.553-0.078-12 7.5-6.5-15-3.5-1zm13.5 6-5.5 3 0.393 0.785 5.107-2.785h3l3.092 1.545 0.908-0.545-4-2h-3z" transform="matrix(8.7438,0,0,8.7438,-31.035,-73.422)" fill="#fff"/>
  </g>
  <path id="path4153" opacity=".2" d="m38 6.9991-0.54902 0.86722-4.4511 15.133-4.0061-1.7811-0.49401 0.78102 3.5531 1.578 1.027 0.149 4.9201-16.727zm-27 12-7.27 1.615-1.7306 1.386 9.0006-2.001 6 19.001 4-2 21.001 2-0.525-1.051-20.476-1.949-4 2-6-19.001zm18.093 4.5451-9.0923 5.4552-2.1071-4.2151-0.39301 0.21501 2.5001 5.0001 10-6.0002-0.90803-0.45501z"/>
 </g>
</svg>

<?xml version="1.0" encoding="UTF-8" standalone="no"?>
<!-- Created with Inkscape (http://www.inkscape.org/) -->

<svg
   xmlns:dc="http://purl.org/dc/elements/1.1/"
   xmlns:cc="http://creativecommons.org/ns#"
   xmlns:rdf="http://www.w3.org/1999/02/22-rdf-syntax-ns#"
   xmlns:svg="http://www.w3.org/2000/svg"
   xmlns="http://www.w3.org/2000/svg"
   xmlns:sodipodi="http://sodipodi.sourceforge.net/DTD/sodipodi-0.dtd"
   xmlns:inkscape="http://www.inkscape.org/namespaces/inkscape"
   id="svg2"
   height="22"
   viewBox="0 0 44 44"
   width="22"
   version="1.1"
   inkscape:version="0.91 r13725"
   sodipodi:docname="copy-com.svg">
  <defs
     id="defs13" />
  <sodipodi:namedview
     pagecolor="#ffffff"
     bordercolor="#666666"
     borderopacity="1"
     objecttolerance="10"
     gridtolerance="10"
     guidetolerance="10"
     inkscape:pageopacity="0"
     inkscape:pageshadow="2"
     inkscape:window-width="1600"
     inkscape:window-height="849"
     id="namedview11"
     showgrid="false"
     inkscape:zoom="9.8333333"
     inkscape:cx="-8.7457627"
     inkscape:cy="12"
     inkscape:window-x="0"
     inkscape:window-y="0"
     inkscape:window-maximized="1"
     inkscape:current-layer="svg2" />
  <metadata
     id="metadata8">
    <rdf:RDF>
      <cc:Work
         rdf:about="">
        <dc:format>image/svg+xml</dc:format>
        <dc:type
           rdf:resource="http://purl.org/dc/dcmitype/StillImage" />
        <dc:title></dc:title>
      </cc:Work>
    </rdf:RDF>
  </metadata>
  <g
     id="g4138"
     transform="matrix(0.11437,0,0,0.11437,1.5486997,6.3965009)">
    <path
       id="path4142"
       d="M 135.1,276.33 82.634,110.2 3.94,127.68 69.518,75.222 l 30.603,8.7438 56.834,131.16 104.93,-65.578 30.603,4.3719 61.206,122.41 -183.62,-17.488 z M 235.65,127.68 318.72,-3.47 275,145.17 Z"
       inkscape:connector-curvature="0"
       style="fill:#1ba9cb" />
    <path
       id="path4140"
       d="m 161.33,197.63 -21.859,-43.719 48.091,-26.231 26.231,0 34.975,17.488 z"
       inkscape:connector-curvature="0"
       style="fill:#e65902" />
  </g>
  <g
     id="g4144"
     transform="matrix(0.11437,0,0,0.11437,1.5487912,6.3965924)"
     style="fill:#8b8b8b">
    <path
       id="path4146"
       d="M 40,8 30.5,23 30.994,23.219 39.451,9.867 40,8 Z M 11.5,17 4,23 5.7305,22.615 11.5,18 15,19 21.5,34 33.5,26.5 37,27 43.475,39.949 44,40 37,26 35.08,25.727 35,26 34.053,25.578 33.5,25.5 21.5,33 15,18 11.5,17 Z M 25,23 19.5,26 19.893,26.785 25,24 28,24 31.092,25.545 32,25 28,23 25,23 Z"
       transform="matrix(8.7438,0,0,8.7438,-31.035,-73.422)"
       inkscape:connector-curvature="0"
       style="opacity:0.1;fill:#ffffff" />
  </g>
  <g
     id="g4151"
     transform="matrix(0.11437,0,0,0.11437,1.5487912,6.3965924)">
    <path
       id="path4153"
       d="M 40,8 39.451,8.8672 35,24.0002 l -4.006,-1.781 -0.494,0.781 3.553,1.578 1.027,0.149 L 40,8.0002 Z M 13,20 5.7305,21.615 4,23 13,21 19,40 23,38 44,40 43.475,38.949 23,37 19,39 13,20 Z M 31.092,24.545 22,30 19.893,25.785 19.5,26 22,31 32,25 31.092,24.545 Z"
       transform="matrix(8.7438,0,0,8.7438,-31.035,-73.422)"
       inkscape:connector-curvature="0"
       style="opacity:0.3" />
  </g>
</svg>
